src/assets/images/addpicture.svg

<?xml version="1.0" encoding="UTF-8"?>
<svg width="512" height="512" enable-background="new 0 0 27.793 27.793" version="1.1" viewBox="0 0 27.793 27.793" xml:space="preserve" xmlns="http://www.w3.org/2000/svg"><g fill="#EBEBEB">
	<path class="active-path" d="m5.5 5.891c-0.906 0-1.643 0.736-1.643 1.646 0 0.908 0.736 1.646 1.643 1.646 0.91 0 1.646-0.738 1.646-1.646 0-0.91-0.736-1.646-1.646-1.646z" data-old_color="#000000" data-original="#000000"/>
	<path class="active-path" d="m17.57 8.599c0.359 0.155 0.793 0.247 1.268 0.247 1.213 0 2.195-0.592 2.195-1.324 0-0.731-0.982-1.324-2.195-1.324-0.455 0-0.879 0.083-1.227 0.227-0.145-0.14-0.34-0.227-0.553-0.227h-0.32c-0.406 0-0.729 0.309-0.775 0.702-0.984 0.103-1.711 0.458-1.711 0.884 0 0.507 1.023 0.916 2.293 0.916 0.369-1e-3 0.715-0.039 1.025-0.101z" data-old_color="#000000" data-original="#000000"/>
	<path class="active-path" d="m24.254 11.952v-8.987c0-0.268-0.217-0.488-0.49-0.488h-23.268c-0.275 0-0.496 0.22-0.496 0.488v20.139c0 0.27 0.221 0.491 0.496 0.491h15.455c1.254 1.072 2.879 1.722 4.658 1.722 3.967 0 7.184-3.215 7.184-7.183 0-2.636-1.424-4.933-3.539-6.182zm-13.266-1.657c-2.658-2.654-5.228 7.615-5.228 7.615h-3.514v-13.207h20.172v6.487c-0.578-0.151-1.182-0.24-1.809-0.24-3.037 0-5.631 1.891-6.678 4.557-0.558-1.639-1.497-3.762-2.943-5.212zm9.621 13.429c-3.088 0-5.59-2.504-5.59-5.591s2.502-5.59 5.59-5.59 5.592 2.502 5.592 5.59-2.504 5.591-5.592 5.591z" data-old_color="#000000" data-original="#000000"/>
	<polygon class="active-path" points="21.584 14.223 19.197 14.223 19.197 16.944 16.42 16.944 16.42 19.331 19.197 19.331 19.197 22.132 21.584 22.132 21.584 19.331 24.33 19.331 24.33 16.944 21.584 16.944" data-old_color="#000000" data-original="#000000"/>
	
	
	
	
	
	
	
	
	
	
	
	
	
	
	
</g> </svg>

<?xml version="1.0"?>
<svg xmlns="http://www.w3.org/2000/svg" xmlns:xlink="http://www.w3.org/1999/xlink" version="1.1" id="Capa_1" x="0px" y="0px" viewBox="0 0 27.793 27.793" style="enable-background:new 0 0 27.793 27.793;" xml:space="preserve" width="512" height="512"><g><g>
	<path d="M5.5,5.891c-0.906,0-1.643,0.736-1.643,1.646c0,0.908,0.736,1.646,1.643,1.646c0.91,0,1.646-0.738,1.646-1.646   C7.146,6.627,6.41,5.891,5.5,5.891z" data-original="#000000" class="active-path" style="fill:#EBEBEB" data-old_color="#000000"/>
	<path d="M17.57,8.599c0.359,0.155,0.793,0.247,1.268,0.247c1.213,0,2.195-0.592,2.195-1.324c0-0.731-0.982-1.324-2.195-1.324   c-0.455,0-0.879,0.083-1.227,0.227c-0.145-0.14-0.34-0.227-0.553-0.227h-0.32c-0.406,0-0.729,0.309-0.775,0.702   c-0.984,0.103-1.711,0.458-1.711,0.884c0,0.507,1.023,0.916,2.293,0.916C16.914,8.699,17.26,8.661,17.57,8.599z" data-original="#000000" class="active-path" style="fill:#EBEBEB" data-old_color="#000000"/>
	<path d="M24.254,11.952V2.965c0-0.268-0.217-0.488-0.49-0.488H0.496C0.221,2.477,0,2.697,0,2.965v20.139   c0,0.27,0.221,0.491,0.496,0.491h15.455c1.254,1.072,2.879,1.722,4.658,1.722c3.967,0,7.184-3.215,7.184-7.183   C27.793,15.498,26.369,13.201,24.254,11.952z M10.988,10.295C8.33,7.641,5.76,17.91,5.76,17.91H2.246V4.703h20.172v6.487   c-0.578-0.151-1.182-0.24-1.809-0.24c-3.037,0-5.631,1.891-6.678,4.557C13.373,13.868,12.434,11.745,10.988,10.295z M20.609,23.724   c-3.088,0-5.59-2.504-5.59-5.591s2.502-5.59,5.59-5.59s5.592,2.502,5.592,5.59S23.697,23.724,20.609,23.724z" data-original="#000000" class="active-path" style="fill:#EBEBEB" data-old_color="#000000"/>
	<polygon points="21.584,14.223 19.197,14.223 19.197,16.944 16.42,16.944 16.42,19.331 19.197,19.331 19.197,22.132 21.584,22.132    21.584,19.331 24.33,19.331 24.33,16.944 21.584,16.944  " data-original="#000000" class="active-path" style="fill:#EBEBEB" data-old_color="#000000"/>
	<g>
	</g>
	<g>
	</g>
	<g>
	</g>
	<g>
	</g>
	<g>
	</g>
	<g>
	</g>
	<g>
	</g>
	<g>
	</g>
	<g>
	</g>
	<g>
	</g>
	<g>
	</g>
	<g>
	</g>
	<g>
	</g>
	<g>
	</g>
	<g>
	</g>
</g></g> </svg>
